X:1
T:In Thy Holy Keeping
T:In Thy Holy Keeping
T:Charles Hutchinson Gabriel
T:Frances Jane (Fanny) Crosby, 1901
T:Public Domain Courtesy of the Cyber Hymnal™
C:Charles Hutchinson Gabriel
Z:Public Domain
Z:Courtesy of the Cyber Hymnal™
%%score ( 1 2 ) 3
L:1/8
Q:1/4=110
M:4/4
K:D
V:1 treble 
V:2 treble 
V:3 bass 
V:1
 [DF]2 [DF]2 [DF][EG][FA][GB] | [FA]4 [DF]4 | [CE]2 [CE]2 [CE][DF][EG][FA] | ([DF]4 [FA]4) | %4
w: 1.~Sav- ior, in Thy ho- ly|keep- ing,|Take, O take our hearts a-|new; *|
w: 2.~Let our faith in Thee be|cen- tered,|Grow- ing bright- er day by|day; *|
w: 3.~Let our love be deep and|fer- vent,|Like to Thine, so full and|free, *|
 [GB]2 [GB]2 [GB][Bd][Ac][GB] | [FA]4 [DF]4 | [CE][CE][DF][EG] [DF]2 [CE]2 | D6 || %8
w: Guard us from the world’s temp-|ta- tion,|All the pil- grim jour- ney|thro’.|
w: Let our hopes be clear and|stead- fast,|All a- long our home- ward|way.|
w: And at last, when Heav’n we|en- ter,|Let Thy name our pass- word|be.|
"^Refrain" [FA][Fd] | [Gc]2 [EG]2 [GB]3 [Gc] | [GB]2 [FA]4 [DF][DF] | [FA]2 [EG]2 [CE]2 [GB]2 | %12
w: ||||
w: By Thy|grace, O Lord, de-|fend us, While as|strang- ers here we|
w: ||||
 A6 [FA][Fd] | [Gc]2 [EG]2 [GB]3 [Gc] | [GB]2 [FA]4 [DF][DF] | [FA]2 [EG]2 [DF]2 [CE]2 | D8 |] %17
w: |||||
w: roam, In Thy|ten- der mer- cy|lead us Till we|reach our heav’n- ly|home.|
w: |||||
V:2
 x8 | x8 | x8 | x8 | x8 | x8 | x8 | D6 || x2 | x8 | x8 | x8 | (FFFF F2) x2 | x8 | x8 | x8 | D8 |] %17
V:3
 [D,A,]2 [D,A,]2 [D,A,][D,A,][D,D][D,D] | [D,D]4 [D,A,]4 | %2
w: ~ ~ ~ ~ ~ ~|~ ~|
 [A,,A,]2 [A,,A,]2 [A,,A,][A,,A,][A,,A,][A,,A,] | ([D,A,]4 [D,D]4) | %4
w: ~ ~ ~ ~ ~ ~|~ *|
 [G,D]2 [G,D]2 [G,D][G,D][G,D][G,D] | [D,D]4 [D,A,]4 | %6
w: ~ ~ ~ ~ ~ ~|~ ~|
 [A,,A,][A,,A,][A,,A,][A,,A,] [A,,A,]2 [A,,G,]2 | [D,F,]6 || [D,D][D,A,] | %9
w: ~ ~ ~ ~ ~ ~|~|~ ~|
 [E,A,]2 [A,C]2 [A,C]3 [A,C] | [D,D]2 [D,D]4 [D,A,][D,A,] | [A,,A,]2 [A,,A,]2 [A,,A,]2 [A,,C]2 | %12
w: ~ ~ ~ ~|~ ~ ~ ~|~ ~ ~ as|
 [D,D][D,D][D,D][D,D] [D,D]2 [D,D][D,A,] | [E,A,]2 [A,C]2 [A,C]3 [A,C] | %14
w: strang- ers here we roam, * *||
 [D,D]2 [D,D]4 [D,A,][D,A,] | [A,,A,]2 [A,,A,]2 [A,,A,]2 [A,,G,]2 | [D,F,]8 |] %17
w: |||

